X: 4805
T: Boys Of The Lough, The
R: reel
M: 4/4
K: Dmajor
|:dB|AD (3FED FAAB|defd efdB|A2 FA (3Bcd AF|EDEF E2 dB|
AD (3FED FAAB|defd efdB|A2 FA (3Bcd AF|EDEF D2:|
|:de|faag fgfe|defd efdB|A2 FA (3Bcd AF|EDEF E2 de|
faag fgfe|defd efdB|A2 FA (3Bcd AF|EDEF D2:|

